X: 18027
T: Hull's
R: reel
M: 4/4
K: Dmajor
|:ADDB AAFB|ADDA BABd|ADDB AAFA|BA B/c/d efdB|
ADDB AAFB|ADDA BABd|efed Bdfe|1 dBBA BddB:|2 dBBA Bdde||
|:fAAA ffed|eBBB eeef|eBBB BBAB|dAAA ABde|
fAAA ffed|eBBB eeed|efed Bdfe|dBBA Bdde:|

